Numix/16/status/indicator-keyboard-Nl-1.svg

<?xml version="1.0" encoding="UTF-8" standalone="no"?>
<svg
   xmlns:dc="http://purl.org/dc/elements/1.1/"
   xmlns:cc="http://creativecommons.org/ns#"
   xmlns:rdf="http://www.w3.org/1999/02/22-rdf-syntax-ns#"
   xmlns:svg="http://www.w3.org/2000/svg"
   xmlns="http://www.w3.org/2000/svg"
   xmlns:sodipodi="http://sodipodi.sourceforge.net/DTD/sodipodi-0.dtd"
   xmlns:inkscape="http://www.inkscape.org/namespaces/inkscape"
   viewBox="0 0 16 16"
   id="svg2"
   version="1.1"
   inkscape:version="0.91 r13725"
   sodipodi:docname="indicator-keyboard-Nl-1.svg">
  <metadata
     id="metadata14">
    <rdf:RDF>
      <cc:Work
         rdf:about="">
        <dc:format>image/svg+xml</dc:format>
        <dc:type
           rdf:resource="http://purl.org/dc/dcmitype/StillImage" />
      </cc:Work>
    </rdf:RDF>
  </metadata>
  <defs
     id="defs12" />
  <sodipodi:namedview
     pagecolor="#ffffff"
     bordercolor="#666666"
     borderopacity="1"
     objecttolerance="10"
     gridtolerance="10"
     guidetolerance="10"
     inkscape:pageopacity="0"
     inkscape:pageshadow="2"
     inkscape:window-width="640"
     inkscape:window-height="480"
     id="namedview10"
     showgrid="false"
     inkscape:zoom="14.75"
     inkscape:cx="8"
     inkscape:cy="8"
     inkscape:window-x="65"
     inkscape:window-y="24"
     inkscape:window-maximized="0"
     inkscape:current-layer="svg2" />
  <path
     style="fill:#ececec;fill-opacity:1"
     d="M 1.5996094 0 C 0.71320937 2.9605947e-16 0 0.71320937 0 1.5996094 L 0 14.400391 C 2.9605947e-16 15.286791 0.71320937 16 1.5996094 16 L 14.400391 16 C 15.286791 16 16 15.286791 16 14.400391 L 16 1.5996094 C 16 0.71320937 15.286791 0 14.400391 0 L 1.5996094 0 z M 9.9511719 4.1113281 L 9.9511719 9.9628906 C 9.9511719 10.106891 9.9642813 10.2225 9.9882812 10.3125 C 10.018281 10.3965 10.059281 10.465531 10.113281 10.519531 C 10.167281 10.567531 10.236312 10.604906 10.320312 10.628906 C 10.410312 10.652906 10.514766 10.673406 10.634766 10.691406 L 10.554688 11.177734 C 10.356688 11.171734 10.183203 11.143703 10.033203 11.095703 C 9.8892033 11.053703 9.7660625 10.988438 9.6640625 10.898438 C 9.5680625 10.802438 9.4934531 10.681109 9.4394531 10.537109 C 9.3914531 10.387109 9.3671875 10.202469 9.3671875 9.9804688 L 9.3671875 4.2207031 L 9.9511719 4.1113281 z M 3.03125 4.859375 L 3.5175781 4.859375 C 3.8235781 5.201375 4.1500469 5.596875 4.4980469 6.046875 C 4.8520469 6.490875 5.1972031 6.9460625 5.5332031 7.4140625 C 5.8692031 7.8760625 6.18075 8.3294375 6.46875 8.7734375 C 6.76275 9.2174375 7.0034531 9.6055469 7.1894531 9.9355469 L 7.1894531 4.859375 L 7.7910156 4.859375 L 7.7910156 11.095703 L 7.2792969 11.095703 C 7.1652969 10.885703 7.0178906 10.639422 6.8378906 10.357422 C 6.6638906 10.075422 6.4717188 9.7750313 6.2617188 9.4570312 C 6.0517188 9.1330313 5.8297031 8.80475 5.5957031 8.46875 C 5.3617031 8.12675 5.1285312 7.7965156 4.8945312 7.4785156 C 4.6665313 7.1545156 4.44075 6.8503594 4.21875 6.5683594 C 4.00275 6.2863594 3.8068125 6.0438437 3.6328125 5.8398438 L 3.6328125 11.095703 L 3.03125 11.095703 L 3.03125 4.859375 z M 12.701172 8.8417969 L 12.96875 8.8417969 L 12.96875 12.896484 L 12.589844 12.896484 L 12.589844 9.421875 C 12.546944 9.468675 12.490122 9.5157063 12.419922 9.5664062 C 12.353622 9.6171062 12.277206 9.66805 12.191406 9.71875 C 12.105606 9.76555 12.015475 9.812575 11.921875 9.859375 C 11.828275 9.902275 11.734225 9.9375437 11.640625 9.9648438 L 11.529297 9.671875 C 11.763297 9.5899751 11.97295 9.4880812 12.15625 9.3632812 C 12.33955 9.2345813 12.521773 9.0601969 12.701172 8.8417969 z "
     id="path4" />
</svg>

<svg xmlns="http://www.w3.org/2000/svg" viewBox="0 0 16 16">
 <path d="m 1.6 0 c -0.886 0 -1.6 0.713 -1.6 1.6 l 0 12.801 c 0 0.886 0.713 1.6 1.6 1.6 l 12.801 0 c 0.886 0 1.6 -0.713 1.6 -1.6 l 0 -12.801 c 0 -0.886 -0.713 -1.6 -1.6 -1.6 l -12.801 0 z m 8.352 4.111 l 0 5.852 c 0 0.144 0.013 0.26 0.037 0.35 c 0.03 0.084 0.071 0.153 0.125 0.207 c 0.054 0.048 0.123 0.085 0.207 0.109 c 0.09 0.024 0.194 0.044 0.314 0.063 l -0.08 0.486 c -0.198 -0.006 -0.371 -0.034 -0.521 -0.082 c -0.144 -0.042 -0.267 -0.107 -0.369 -0.197 c -0.096 -0.096 -0.171 -0.217 -0.225 -0.361 c -0.048 -0.15 -0.072 -0.335 -0.072 -0.557 l 0 -5.76 l 0.584 -0.109 z m -6.92 0.748 l 0.486 0 c 0.306 0.342 0.632 0.737 0.98 1.188 c 0.354 0.444 0.699 0.899 1.035 1.367 c 0.336 0.462 0.648 0.915 0.936 1.359 c 0.294 0.444 0.535 0.832 0.721 1.162 l 0 -5.076 l 0.602 0 l 0 6.236 l -0.512 0 c -0.114 -0.21 -0.261 -0.456 -0.441 -0.738 c -0.174 -0.282 -0.366 -0.582 -0.576 -0.9 c -0.21 -0.324 -0.432 -0.652 -0.666 -0.988 c -0.234 -0.342 -0.467 -0.672 -0.701 -0.99 c -0.228 -0.324 -0.454 -0.628 -0.676 -0.91 c -0.216 -0.282 -0.412 -0.525 -0.586 -0.729 l 0 5.256 l -0.602 0 l 0 -6.236 z m 9.67 3.982 l 0.268 0 l 0 4.055 l -0.379 0 l 0 -3.475 c -0.043 0.047 -0.1 0.094 -0.17 0.145 c -0.066 0.051 -0.143 0.102 -0.229 0.152 c -0.086 0.047 -0.176 0.094 -0.27 0.141 c -0.094 0.043 -0.188 0.078 -0.281 0.105 l -0.111 -0.293 c 0.234 -0.082 0.444 -0.184 0.627 -0.309 c 0.183 -0.129 0.366 -0.303 0.545 -0.521 z" style="fill:#ececec;fill-opacity:1"/>
</svg>
